X: 16744
T: Hardiman The Fiddler
R: slip jig
M: 9/8
K: Bminor
B2A GEF G2A|Bd/B/B BAB dBA|Bd/B/A GEF G2A|Bee efe dBA|
Bd/B/A GEF G2A|B3 BAB dBA|Bd/B/A GEF G2A|Bee efe dBA||
Bee e2f g3|Bee efe dBA|Bee e2f g2a|bag afe dBA|
Bee e2f g3|Bee efe dBA|edB def g2a|bag afe dBA||

